svg/monochrome/align-letter-right.svg

<svg xmlns="http://www.w3.org/2000/svg" viewBox="0 0 24 24"><path class="uim-primary" d="M21 4H10a1 1 0 0 1 0-2h11a1 1 0 0 1 0 2zm0 4H3a1 1 0 0 1 0-2h18a1 1 0 0 1 0 2zm0 4H3a1 1 0 0 1 0-2h18a1 1 0 0 1 0 2zm0 6H11a1 1 0 0 1 0-2h10a1 1 0 0 1 0 2zm0 4H3a1 1 0 0 1 0-2h18a1 1 0 0 1 0 2z"/></svg>

<svg xmlns="http://www.w3.org/2000/svg" viewBox="0 0 24 24"><path class="uim-primary" d="M21 4H10a1 1 0 0 1 0-2H21a1 1 0 0 1 0 2zM21 8H3A1 1 0 0 1 3 6H21a1 1 0 0 1 0 2zM21 12H3a1 1 0 0 1 0-2H21a1 1 0 0 1 0 2zM21 18H11a1 1 0 0 1 0-2H21a1 1 0 0 1 0 2zM21 22H3a1 1 0 0 1 0-2H21a1 1 0 0 1 0 2z"/></svg>
